X: 1962
T: Waltz of Memories
C:Roy Rose Gracemere Queensland, collected by Bill "Monty" Montgomery
B: australian traditional tunes wiki
M:3/4
L:1/4
R: Waltz
Q: 1/4=150
K:A
V:1 
cd^d+segno+|"A"e3|^d2e|f2e|A3|Ace|f2e|"E7"G3-|GBc|
"E7"d2d|c2d|e2d|G3|EGB|e^d=d|"A"c3|cd^d|
"A"e3|^d2e|f2e|A3|Ace|a2g|"D"f3-|f fg|
"D"a2a|g2a|"A"b2a|e2c|"E7"d2e|dGB|1"A"A3|cd^d|2"A"A3|A3+fine+||
|:"A"e2e|c2c|A2A|E3|EFG|ABc|"E7"d3-|dBc|
"E7"d2d|B2B|G2G|E3|EFG|AB=c|"A"c3-|cd^d|
"A"e2e|c2c|A2A|E3|EFG|ABc|"D"f3-|ffg|
"D"a2a|g2a|"A"b2a|e2c|"E7"d2e|dGB|1"A"A3|cd^d:|2"A"A3|cd^d+D.S.+||
% abcbook-tune_id 6342d5be349e5b9176f59f8f


% abcbook-boost 0
% abcbook-tablature 
% abcbook-transpose 
% abcbook-lastupdated 1665324490795
% abcbook-soundfonts 
% abcbook-repeats 1


